%
(Header)
(Generated by gcodetools from Inkscape.)
(Using default header. To add your own header create file "header" in the output dir.)
M3
(Header end.)
G21 (All units in mm)
(Tool diameter should be at least 1.2477628043 mm)
(Depth, as a function of radius w, must be 10)
(Rapid feeds use safe Z=20.0 mm)
(Material surface at Z=0.0 mm)
(Change tool to Cylindrical cutter)

G00 Z70.000000
G00 X68.873004 Y-49.502597

G01 Z49.577937 F100.0(Penetrate)
G01 X68.873004 Y-49.502597 Z49.577937 F400.000000
G01 X70.310982 Y-50.034839 Z49.534813
G01 X70.431914 Y-50.151454 Z49.513646
G01 X70.618181 Y-50.389169 Z49.502104
G01 X70.618181 Y-50.389169 Z49.502104
G01 X70.805040 Y-50.650197 Z49.473402
G01 X70.986453 Y-50.975345 Z49.454549
G01 X71.209493 Y-51.426167 Z49.455650
G01 X71.471706 Y-51.949971 Z49.454747
G01 X71.967570 Y-52.940571 Z49.453110
G01 X72.854397 Y-53.487461 Z50.000000
G01 X71.967570 Y-52.940571 Z49.453110
G01 X71.967570 Y-52.940571 Z49.453110
G01 X71.629158 Y-53.487461 Z50.000000
G01 X71.967570 Y-52.940571 Z49.453110
G01 X71.894023 Y-52.793646 Z49.453336
G01 X71.039285 Y-51.082589 Z49.454606
G01 X70.705218 Y-50.499349 Z49.496177
G01 X70.331810 Y-50.049882 Z49.535208
G01 X69.974940 Y-49.864744 Z49.588181
G01 X69.630516 Y-49.688976 Z49.644287
G01 X69.169788 Y-49.551477 Z49.626818
G01 X68.670481 Y-49.456002 Z49.531370
G01 X66.959650 Y-49.456002 Z49.531370
G01 X66.858022 Y-50.294964 Z49.429714
G01 X66.858022 Y-51.706075 Z49.429714
G01 X66.858022 Y-52.917203 Z49.429714
G01 X67.428308 Y-53.487461 Z50.000000
G01 X66.858022 Y-52.917203 Z49.429714
G01 X66.858022 Y-52.917203 Z49.429714
G01 X66.287735 Y-53.487461 Z50.000000
G01 X66.858022 Y-52.917203 Z49.429714
G01 X66.858022 Y-52.800279 Z49.429714
G01 X66.858022 Y-49.978056 Z49.429714
G01 X66.858022 Y-48.566945 Z49.429714
G01 X66.858022 Y-47.155834 Z49.429714
G01 X66.858022 Y-45.627798 Z49.429714
G01 X66.287735 Y-45.057512 Z50.000000
G01 X66.858022 Y-45.627798 Z49.429714
G01 X66.869536 Y-45.616284 Z49.441256
G01 X68.862477 Y-45.526170 Z49.531342
G01 X69.756105 Y-45.567008 Z49.490504
G01 X70.274632 Y-45.767696 Z49.437136
G01 X70.650891 Y-46.095553 Z49.430786
G01 X70.975559 Y-46.433797 Z49.383119
G01 X71.112352 Y-46.788719 Z49.381566
G01 X71.129455 Y-47.485441 Z49.398669
G01 X71.129455 Y-47.933018 Z49.398669
G01 X71.070414 Y-48.200226 Z49.414389
G01 X70.914176 Y-48.493991 Z49.456976
G01 X70.917647 Y-48.498817 Z49.462592
G01 X70.729687 Y-48.767746 Z49.462592
G01 X70.532386 Y-48.922940 Z49.480175
G01 X68.873004 Y-49.502597 Z49.577937
G00 Z70.000000

G00 Z70.000000
G00 X68.850934 Y-45.526170

G01 Z49.531342 F100.0(Penetrate)
G01 X66.959650 Y-45.526170 Z49.531342 F400.000000
G01 X66.959650 Y-45.526170 Z49.531342
G01 X66.858022 Y-46.079975 Z49.429714
G01 X66.858022 Y-47.491086 Z49.429714
G01 X66.959650 Y-49.456002 Z49.531370
G01 X67.439823 Y-49.456002 Z49.531370
G01 X68.862477 Y-49.456002 Z49.531370
G01 X69.469142 Y-49.370940 Z49.616432
G01 X70.022156 Y-49.207110 Z49.612029
G01 X70.437136 Y-48.976026 Z49.504813
G01 X70.437136 Y-48.976026 Z49.504813
G01 X70.829678 Y-48.654265 Z49.479526
G01 X71.108542 Y-48.084289 Z49.419582
G01 X71.129455 Y-47.485441 Z49.398669
G01 X71.129455 Y-46.881740 Z49.398669
G01 X70.870968 Y-46.285828 Z49.428218
G01 X70.482404 Y-45.949927 Z49.432733
G01 X70.085515 Y-45.663302 Z49.486666
G01 X69.481813 Y-45.526170 Z49.531370
G01 X68.862477 Y-45.526170 Z49.531342
G01 X68.850934 Y-45.526170 Z49.531342
G00 Z70.000000

G00 Z70.000000
G00 X59.540394 Y-52.800279

G01 Z49.429714 F100.0(Penetrate)
G01 X59.540394 Y-49.978056 Z49.429714 F400.000000
G01 X59.540394 Y-48.566945 Z49.429714
G01 X59.540394 Y-47.155834 Z49.429714
G01 X59.540394 Y-45.627798 Z49.429714
G01 X58.970136 Y-45.057512 Z50.000000
G01 X59.540394 Y-45.627798 Z49.429714
G01 X59.518522 Y-45.605926 Z49.451614
G01 X60.929633 Y-45.537459 Z49.520053
G01 X62.340744 Y-45.537459 Z49.520053
G01 X63.820294 Y-45.537459 Z49.520053
G01 X64.300241 Y-45.057512 Z50.000000
G01 X63.820294 Y-45.537459 Z49.520053
G01 X63.820294 Y-45.537459 Z49.520053
G01 X64.300241 Y-46.017406 Z50.000000
G01 X63.820294 Y-45.537459 Z49.520053
G01 X63.616558 Y-45.537459 Z49.520053
G01 X62.205447 Y-45.537459 Z49.520053
G01 X59.630734 Y-45.537459 Z49.520053
G01 X59.540394 Y-46.559668 Z49.429714
G01 X59.630734 Y-48.993016 Z49.520053
G01 X60.706819 Y-48.993016 Z49.520053
G01 X62.117930 Y-48.993016 Z49.520053
G01 X63.645260 Y-48.993016 Z49.520053
G01 X64.125207 Y-48.513069 Z50.000000
G01 X63.645260 Y-48.993016 Z49.520053
G01 X63.645260 Y-48.993016 Z49.520053
G01 X64.125207 Y-49.472935 Z50.000000
G01 X63.645260 Y-48.993016 Z49.520053
G01 X63.529041 Y-48.993016 Z49.520053
G01 X62.117930 Y-48.993016 Z49.520053
G01 X59.630734 Y-48.993016 Z49.520053
G01 X59.540394 Y-49.589154 Z49.429714
G01 X59.540394 Y-51.000265 Z49.429714
G01 X59.630734 Y-53.007543 Z49.520053
G01 X60.139609 Y-53.007543 Z49.520053
G01 X62.961831 Y-53.007543 Z49.520053
G01 X63.921951 Y-53.007543 Z49.520053
G01 X64.401870 Y-52.527595 Z50.000000
G01 X63.921951 Y-53.007543 Z49.520053
G01 X63.921951 Y-53.007543 Z49.520053
G01 X64.401870 Y-53.487461 Z50.000000
G01 X63.921951 Y-53.007543 Z49.520053
G01 X63.802655 Y-53.007543 Z49.520053
G01 X60.980433 Y-53.007543 Z49.520053
G01 X59.540394 Y-52.917203 Z49.429714
G01 X58.970136 Y-53.487461 Z50.000000
G01 X59.540394 Y-52.917203 Z49.429714
G01 X59.540394 Y-52.800279 Z49.429714
G00 Z70.000000

G00 Z70.000000
G00 X52.561547 Y-52.800279

G01 Z49.429714 F100.0(Penetrate)
G01 X52.561547 Y-49.978056 Z49.429714 F400.000000
G01 X52.561547 Y-48.566945 Z49.429714
G01 X52.561547 Y-47.155834 Z49.429714
G01 X52.561547 Y-45.627798 Z49.429714
G01 X51.991289 Y-45.057512 Z50.000000
G01 X52.561547 Y-45.627798 Z49.429714
G01 X52.573090 Y-45.616284 Z49.441256
G01 X54.566002 Y-45.526170 Z49.531342
G01 X55.435557 Y-45.568955 Z49.488585
G01 X55.943783 Y-45.773425 Z49.439168
G01 X56.329270 Y-46.127670 Z49.431012
G01 X56.329270 Y-46.127670 Z49.431012
G01 X56.672339 Y-46.490213 Z49.384360
G01 X56.815765 Y-46.867375 Z49.381425
G01 X56.832980 Y-47.575781 Z49.398669
G01 X56.814974 Y-48.292230 Z49.380663
G01 X56.671126 Y-48.672581 Z49.383514
G01 X56.328847 Y-49.032809 Z49.428923
G01 X56.334124 Y-49.040458 Z49.438180
G01 X55.945053 Y-49.383950 Z49.438180
G01 X55.436178 Y-49.588166 Z49.488472
G01 X54.566002 Y-49.631036 Z49.531370
G01 X54.554459 Y-49.631036 Z49.531370
G01 X52.663175 Y-49.631036 Z49.531370
G01 X52.561547 Y-50.382481 Z49.429714
G01 X52.561547 Y-51.793592 Z49.429714
G01 X52.561547 Y-52.917203 Z49.429714
G01 X53.131833 Y-53.487461 Z50.000000
G01 X52.561547 Y-52.917203 Z49.429714
G01 X52.561547 Y-52.917203 Z49.429714
G01 X51.991289 Y-53.487461 Z50.000000
G01 X52.561547 Y-52.917203 Z49.429714
G01 X52.561547 Y-52.800279 Z49.429714
G00 Z70.000000

G00 Z70.000000
G00 X48.906854 Y-50.081773

G01 Z49.475575 F100.0(Penetrate)
G01 X47.914476 Y-47.439750 Z49.489150 F400.000000
G01 X46.903443 Y-45.346705 Z49.710835
G01 X46.392000 Y-46.119204 Z49.498237
G01 X45.400412 Y-48.761566 Z49.482150
G01 X44.595204 Y-50.907245 Z49.469112
G01 X44.595204 Y-50.907245 Z49.469112
G01 X44.676427 Y-50.850659 Z49.525697
G01 X46.906773 Y-50.850659 Z49.525697
G01 X49.137965 Y-50.850659 Z49.525697
G01 X48.906854 Y-50.081773 Z49.475575
G00 Z70.000000

G00 Z70.000000
G00 X43.320236 Y-53.295776

G01 Z49.808315 F100.0(Penetrate)
G01 X43.320236 Y-53.295776 Z49.808315 F400.000000
G01 X44.155388 Y-52.104177 Z49.453110
G01 X44.643012 Y-50.779878 Z49.469874
G01 X45.634600 Y-48.137544 Z49.485960
G01 X46.130380 Y-46.816377 Z49.494004
G01 X46.603412 Y-45.555832 Z49.501680
G01 X46.260258 Y-45.057512 Z50.000000
G01 X46.603412 Y-45.555832 Z49.501680
G01 X47.207932 Y-45.558682 Z49.498830
G01 X47.553259 Y-45.057512 Z50.000000
G01 X47.207932 Y-45.558682 Z49.498830
G01 X47.275891 Y-45.460074 Z49.597466
G01 X47.680231 Y-46.816095 Z49.492367
G01 X48.672609 Y-49.458118 Z49.478792
G01 X49.168784 Y-50.779144 Z49.471990
G01 X49.660669 Y-52.101779 Z49.460589
G01 X49.968376 Y-52.937862 Z49.450372
G01 X50.766021 Y-53.487461 Z50.000000
G01 X49.968376 Y-52.937862 Z49.450372
G01 X49.968376 Y-52.937862 Z49.450372
G01 X49.580292 Y-53.487461 Z50.000000
G01 X49.968376 Y-52.937862 Z49.450372
G01 X49.949806 Y-52.887372 Z49.450993
G01 X49.182049 Y-50.801411 Z49.476450
G01 X49.147279 Y-50.850659 Z49.525697
G01 X46.912417 Y-50.850659 Z49.525697
G01 X44.677528 Y-50.850659 Z49.525697
G01 X44.355625 Y-51.560589 Z49.459911
G01 X43.851068 Y-52.930242 Z49.442752
G01 X44.244542 Y-53.487461 Z50.000000
G01 X43.851068 Y-52.930242 Z49.442752
G01 X43.851068 Y-52.930242 Z49.442752
G01 X43.041852 Y-53.487461 Z50.000000
G01 X43.851068 Y-52.930242 Z49.442752
G01 X43.320236 Y-53.295776 Z49.808315
G00 Z70.000000

G00 Z70.000000
G00 X35.961377 Y-52.800279

G01 Z49.429714 F100.0(Penetrate)
G01 X35.961377 Y-49.978056 Z49.429714 F400.000000
G01 X35.961377 Y-48.566945 Z49.429714
G01 X35.961377 Y-47.155834 Z49.429714
G01 X35.961377 Y-45.627798 Z49.429714
G01 X35.391118 Y-45.057512 Z50.000000
G01 X35.961377 Y-45.627798 Z49.429714
G01 X35.961377 Y-45.627798 Z49.429714
G01 X36.531663 Y-45.057512 Z50.000000
G01 X35.961377 Y-45.627798 Z49.429714
G01 X36.215010 Y-45.374193 Z49.683347
G01 X35.961377 Y-46.785304 Z49.429714
G01 X36.051716 Y-48.993016 Z49.520053
G01 X37.192740 Y-48.993016 Z49.520053
G01 X38.603852 Y-48.993016 Z49.520053
G01 X41.155987 Y-48.993016 Z49.520053
G01 X41.246326 Y-48.196416 Z49.429714
G01 X41.246326 Y-46.785304 Z49.429714
G01 X41.246326 Y-45.627798 Z49.429714
G01 X40.676068 Y-45.057512 Z50.000000
G01 X41.246326 Y-45.627798 Z49.429714
G01 X41.246326 Y-45.627798 Z49.429714
G01 X41.816613 Y-45.057512 Z50.000000
G01 X41.246326 Y-45.627798 Z49.429714
G01 X41.246326 Y-45.744723 Z49.429714
G01 X41.246326 Y-48.566945 Z49.429714
G01 X41.246326 Y-49.978056 Z49.429714
G01 X41.246326 Y-51.389167 Z49.429714
G01 X41.246326 Y-52.917203 Z49.429714
G01 X41.816613 Y-53.487461 Z50.000000
G01 X41.246326 Y-52.917203 Z49.429714
G01 X41.246326 Y-52.917203 Z49.429714
G01 X40.676068 Y-53.487461 Z50.000000
G01 X41.246326 Y-52.917203 Z49.429714
G01 X41.246326 Y-52.891323 Z49.429714
G01 X41.246326 Y-51.480212 Z49.429714
G01 X41.155987 Y-48.993016 Z49.520053
G01 X40.014963 Y-48.993016 Z49.520053
G01 X38.603852 Y-48.993016 Z49.520053
G01 X36.051716 Y-48.993016 Z49.520053
G01 X35.961377 Y-50.069101 Z49.429714
G01 X35.961377 Y-51.480212 Z49.429714
G01 X35.961377 Y-52.917203 Z49.429714
G01 X36.531663 Y-53.487461 Z50.000000
G01 X35.961377 Y-52.917203 Z49.429714
G01 X35.961377 Y-52.917203 Z49.429714
G01 X35.391118 Y-53.487461 Z50.000000
G01 X35.961377 Y-52.917203 Z49.429714
G01 X35.961377 Y-52.800279 Z49.429714
G00 Z70.000000

G00 Z70.000000
G00 X32.611258 Y-45.689605

G01 Z49.506901 F100.0(Penetrate)
G01 X33.104356 Y-45.334202 Z50.000000 F400.000000
G01 X32.611258 Y-45.689605 Z49.506901
G01 X32.622293 Y-45.681646 Z49.517964
G01 X33.104356 Y-46.446525 Z50.000000
G01 X32.622293 Y-45.681646 Z49.517964
G01 X32.793630 Y-45.953483 Z49.689273
G01 X32.410965 Y-45.623396 Z49.515763
G01 X32.000980 Y-45.523037 Z49.523665
G01 X31.585182 Y-45.431936 Z49.541982
G01 X31.155527 Y-45.374447 Z49.543364
G01 X30.766766 Y-45.368069 Z49.537014
G01 X30.088473 Y-45.368069 Z49.537014
G01 X29.455675 Y-45.495944 Z49.506986
G01 X29.022859 Y-45.767160 Z49.477183
G01 X29.022859 Y-45.767160 Z49.477183
G01 X29.031466 Y-45.781496 Z49.493834
G01 X28.593147 Y-46.096682 Z49.493834
G01 X28.260209 Y-46.645322 Z49.435753
G01 X28.251348 Y-47.220068 Z49.426891
G01 X28.251348 Y-47.701370 Z49.426891
G01 X28.451979 Y-48.217582 Z49.424662
G01 X28.778511 Y-48.513605 Z49.414248
G01 X28.778511 Y-48.513605 Z49.414248
G01 X28.791973 Y-48.505731 Z49.428895
G01 X29.095531 Y-48.758715 Z49.428895
G01 X29.661076 Y-48.953251 Z49.436572
G01 X30.324637 Y-49.081013 Z49.432790
G01 X31.013118 Y-49.219076 Z49.435753
G01 X31.791459 Y-49.398485 Z49.404991
G01 X32.240954 Y-49.625533 Z49.385122
G01 X32.574287 Y-49.948254 Z49.396891
G01 X32.872031 Y-50.275377 Z49.376120
G01 X32.991976 Y-50.587910 Z49.379478
G01 X33.016839 Y-51.161188 Z49.404314
G01 X33.016839 Y-51.851786 Z49.404314
G01 X32.850272 Y-52.213397 Z49.398754
G01 X32.460156 Y-52.592732 Z49.462310
G01 X31.995929 Y-52.939809 Z49.453194
G01 X31.376112 Y-53.152605 Z49.501398
G01 X30.382831 Y-53.188221 Z49.537014
G01 X30.008322 Y-53.188221 Z49.537014
G01 X29.628705 Y-53.146170 Z49.535293
G01 X29.199276 Y-53.055125 Z49.530213
G01 X28.774955 Y-52.949631 Z49.510683
G01 X28.348855 Y-52.817805 Z49.501708
G01 X28.214433 Y-52.764154 Z49.497701
G01 X27.712106 Y-53.114815 Z50.000000
G01 X28.214433 Y-52.764154 Z49.497701
G01 X28.200322 Y-52.774004 Z49.511812
G01 X27.712106 Y-51.940376 Z50.000000
G01 X28.200322 Y-52.774004 Z49.511812
G01 X28.032767 Y-52.487915 Z49.679339
G01 X28.461123 Y-52.857965 Z49.509300
G01 X28.935850 Y-52.989621 Z49.518077
G01 X29.416954 Y-53.109058 Z49.540401
G01 X29.919338 Y-53.183508 Z49.541728
G01 X30.382831 Y-53.188221 Z49.537014
G01 X31.092056 Y-53.188221 Z49.537014
G01 X31.751101 Y-53.055577 Z49.502894
G01 X32.208442 Y-52.780946 Z49.457371
G01 X32.666235 Y-52.439232 Z49.465894
G01 X33.015795 Y-51.856669 Z49.405358
G01 X33.016839 Y-51.245883 Z49.404314
G01 X33.016839 Y-50.718353 Z49.404314
G01 X32.796706 Y-50.160654 Z49.403975
G01 X32.448472 Y-49.826983 Z49.392065
G01 X32.109438 Y-49.537931 Z49.410156
G01 X31.536640 Y-49.321579 Z49.432903
G01 X30.899100 Y-49.195934 Z49.435556
G01 X30.204467 Y-49.058068 Z49.433270
G01 X29.418111 Y-48.885913 Z49.418001
G01 X28.960996 Y-48.676052 Z49.406289
G01 X28.649225 Y-48.396398 Z49.418368
G01 X28.382835 Y-48.114938 Z49.397879
G01 X28.278441 Y-47.844372 Z49.399798
G01 X28.251348 Y-47.310407 Z49.426891
G01 X28.251348 Y-46.686978 Z49.426891
G01 X28.405949 Y-46.333297 Z49.429601
G01 X28.788304 Y-45.946738 Z49.486045
G01 X29.243246 Y-45.599350 Z49.468152
G01 X29.787173 Y-45.405294 Z49.499761
G01 X30.636916 Y-45.368069 Z49.537014
G01 X31.011650 Y-45.368069 Z49.537014
G01 X31.374729 Y-45.399198 Z49.538115
G01 X31.765212 Y-45.471391 Z49.534051
G01 X32.154058 Y-45.556565 Z49.516892
G01 X32.536469 Y-45.663020 Z49.508482
G01 X32.611258 Y-45.689605 Z49.506901
G00 Z70.000000

G00 Z70.000000
G00 X22.919013 Y-48.736081

G01 Z49.493580 F100.0(Penetrate)
G01 X21.340487 Y-46.396600 Z49.492677 F400.000000
G01 X20.779486 Y-45.565173 Z49.492367
G01 X19.824220 Y-45.057512 Z50.000000
G01 X20.779486 Y-45.565173 Z49.492367
G01 X20.779486 Y-45.565173 Z49.492367
G01 X21.049460 Y-45.057512 Z50.000000
G01 X20.779486 Y-45.565173 Z49.492367
G01 X21.008566 Y-45.904686 Z49.492480
G01 X21.797829 Y-47.074413 Z49.492931
G01 X23.388743 Y-49.533810 Z49.437080
G01 X23.388743 Y-49.533810 Z49.437080
G01 X23.388546 Y-49.422276 Z49.499253
G01 X24.178514 Y-48.242136 Z49.499253
G01 X24.965829 Y-47.071054 Z49.496431
G01 X25.978499 Y-45.564722 Z49.492818
G01 X25.707679 Y-45.057512 Z50.000000
G01 X25.978499 Y-45.564722 Z49.492818
G01 X25.978499 Y-45.564722 Z49.492818
G01 X26.932918 Y-45.057512 Z50.000000
G01 X25.978499 Y-45.564722 Z49.492818
G01 X26.385774 Y-45.348285 Z49.709226
G01 X25.418429 Y-46.397813 Z49.494822
G01 X24.631142 Y-47.568866 Z49.497644
G01 X23.453542 Y-49.320535 Z49.501878
G01 X23.378555 Y-50.069101 Z49.426891
G01 X23.378555 Y-51.480212 Z49.426891
G01 X23.378555 Y-52.914381 Z49.426891
G01 X23.951664 Y-53.487461 Z50.000000
G01 X23.378555 Y-52.914381 Z49.426891
G01 X23.378555 Y-52.914381 Z49.426891
G01 X22.805475 Y-53.487461 Z50.000000
G01 X23.378555 Y-52.914381 Z49.426891
G01 X23.378555 Y-52.891323 Z49.426891
G01 X23.378555 Y-51.480212 Z49.426891
G01 X23.311669 Y-49.318051 Z49.493806
G01 X22.919013 Y-48.736081 Z49.493580
G00 Z70.000000

G00 Z70.000000
G00 X16.650998 Y-52.800279

G01 Z49.429714 F100.0(Penetrate)
G01 X16.650998 Y-47.155834 Z49.429714 F400.000000
G01 X16.650998 Y-45.627798 Z49.429714
G01 X16.080712 Y-45.057512 Z50.000000
G01 X16.650998 Y-45.627798 Z49.429714
G01 X16.650998 Y-45.627798 Z49.429714
G01 X17.221257 Y-45.057512 Z50.000000
G01 X16.650998 Y-45.627798 Z49.429714
G01 X17.013993 Y-45.264776 Z49.792736
G01 X16.650998 Y-46.675887 Z49.429714
G01 X16.650998 Y-50.909220 Z49.429714
G01 X16.741338 Y-53.007543 Z49.520053
G01 X17.862578 Y-53.007543 Z49.520053
G01 X19.273689 Y-53.007543 Z49.520053
G01 X20.846203 Y-53.007543 Z49.520053
G01 X21.326122 Y-52.527595 Z50.000000
G01 X20.846203 Y-53.007543 Z49.520053
G01 X20.846203 Y-53.007543 Z49.520053
G01 X21.326122 Y-53.487461 Z50.000000
G01 X20.846203 Y-53.007543 Z49.520053
G01 X20.820098 Y-53.007543 Z49.520053
G01 X17.997876 Y-53.007543 Z49.520053
G01 X16.650998 Y-52.917203 Z49.429714
G01 X16.080712 Y-53.487461 Z50.000000
G01 X16.650998 Y-52.917203 Z49.429714
G01 X16.650998 Y-52.800279 Z49.429714
G00 Z70.000000

G00 Z70.000000
G00 X10.400510 Y-45.368069

G01 Z49.537014 F100.0(Penetrate)
G01 X11.482352 Y-45.401654 Z49.503402 F400.000000
G01 X12.219884 Y-45.732390 Z49.484295
G01 X12.827395 Y-46.460467 Z49.453533
G01 X12.827395 Y-46.460467 Z49.453533
G01 X13.417353 Y-47.191874 Z49.405245
G01 X13.683432 Y-48.047910 Z49.386957
G01 X13.695144 Y-49.280967 Z49.398669
G01 X13.683432 Y-50.510243 Z49.386957
G01 X13.416901 Y-51.366872 Z49.404991
G01 X12.826097 Y-52.100311 Z49.451783
G01 X12.220335 Y-52.824550 Z49.483533
G01 X11.482776 Y-53.154524 Z49.503317
G01 X10.400510 Y-53.188221 Z49.537014
G01 X9.314293 Y-53.153705 Z49.502499
G01 X8.573488 Y-52.822235 Z49.481445
G01 X7.962759 Y-52.099267 Z49.451755
G01 X7.373084 Y-51.369666 Z49.404455
G01 X7.106807 Y-50.513940 Z49.386449
G01 X7.094587 Y-49.280967 Z49.398669
G01 X7.106299 Y-48.047910 Z49.386957
G01 X7.372378 Y-47.191874 Z49.405245
G01 X7.961884 Y-46.461003 Z49.453505
G01 X8.573939 Y-45.734704 Z49.482207
G01 X9.314716 Y-45.402500 Z49.502583
G01 X10.400510 Y-45.368069 Z49.537014
G00 Z70.000000

G00 Z70.000000
G00 X10.400510 Y-45.368069

G01 Z49.537014 F100.0(Penetrate)
G01 X9.469289 Y-45.368069 Z49.537014 F400.000000
G01 X8.585990 Y-45.725588 Z49.485960
G01 X7.996767 Y-46.419460 Z49.455255
G01 X7.996767 Y-46.419460 Z49.455255
G01 X7.418860 Y-47.107884 Z49.426637
G01 X7.094587 Y-48.130658 Z49.398669
G01 X7.094587 Y-49.280967 Z49.398669
G01 X7.094587 Y-50.427693 Z49.398669
G01 X7.417252 Y-51.449422 Z49.424746
G01 X7.995327 Y-52.137959 Z49.453420
G01 X8.020868 Y-52.119022 Z49.485198
G01 X8.585482 Y-52.831323 Z49.485198
G01 X9.469289 Y-53.188221 Z49.537014
G01 X10.400510 Y-53.188221 Z49.537014
G01 X11.332267 Y-53.188221 Z49.537014
G01 X12.213703 Y-52.829601 Z49.485650
G01 X12.795786 Y-52.136407 Z49.453279
G01 X13.371548 Y-51.448970 Z49.425734
G01 X13.695144 Y-50.427693 Z49.398669
G01 X13.695144 Y-49.280967 Z49.398669
G01 X13.695144 Y-48.130658 Z49.398669
G01 X13.370871 Y-47.107884 Z49.426637
G01 X12.794347 Y-46.421012 Z49.455114
G01 X12.213223 Y-45.727310 Z49.486412
G01 X11.332267 Y-45.368069 Z49.537014
G01 X10.400510 Y-45.368069 Z49.537014
G00 Z70.000000

G00 Z70.000000
G00 X2.563199 Y-45.526170

G01 Z49.531342 F100.0(Penetrate)
G01 X0.671915 Y-45.526170 Z49.531370 F400.000000
G01 X0.570286 Y-46.167492 Z49.429714
G01 X0.570286 Y-47.578603 Z49.429714
G01 X0.671915 Y-49.631036 Z49.531370
G01 X1.152088 Y-49.631036 Z49.531370
G01 X2.574713 Y-49.631036 Z49.531370
G01 X3.181858 Y-49.631036 Z49.531370
G01 X3.788720 Y-49.479370 Z49.482461
G01 X4.196165 Y-49.162180 Z49.432338
G01 X4.590627 Y-48.802177 Z49.422206
G01 X4.841720 Y-48.191674 Z49.398669
G01 X4.841720 Y-47.575781 Z49.398669
G01 X4.841720 Y-46.963161 Z49.398669
G01 X4.588425 Y-46.355903 Z49.424351
G01 X4.195008 Y-45.996268 Z49.434032
G01 X3.788438 Y-45.678288 Z49.482997
G01 X3.181858 Y-45.526170 Z49.531370
G01 X2.574713 Y-45.526170 Z49.531342
G01 X2.563199 Y-45.526170 Z49.531342
G00 Z70.000000

G00 Z70.000000
G00 X0.570286 Y-52.800279

G01 Z49.429714 F100.0(Penetrate)
G01 X0.570286 Y-49.978056 Z49.429714 F400.000000
G01 X0.570286 Y-48.566945 Z49.429714
G01 X0.570286 Y-47.155834 Z49.429714
G01 X0.570286 Y-45.627798 Z49.429714
G01 X0.000000 Y-45.057512 Z50.000000
G01 X0.570286 Y-45.627798 Z49.429714
G01 X0.581801 Y-45.616284 Z49.441256
G01 X2.574713 Y-45.526170 Z49.531342
G01 X3.444296 Y-45.568955 Z49.488585
G01 X3.952494 Y-45.773425 Z49.439168
G01 X4.337981 Y-46.127670 Z49.431012
G01 X4.337981 Y-46.127670 Z49.431012
G01 X4.681079 Y-46.490213 Z49.384360
G01 X4.824476 Y-46.867375 Z49.381425
G01 X4.841720 Y-47.575781 Z49.398669
G01 X4.823714 Y-48.292230 Z49.380663
G01 X4.679865 Y-48.672581 Z49.383514
G01 X4.337558 Y-49.032809 Z49.428923
G01 X4.342836 Y-49.040458 Z49.438180
G01 X3.953764 Y-49.383950 Z49.438180
G01 X3.444917 Y-49.588166 Z49.488472
G01 X2.574713 Y-49.631036 Z49.531370
G01 X2.563199 Y-49.631036 Z49.531370
G01 X0.671915 Y-49.631036 Z49.531370
G01 X0.570286 Y-50.382481 Z49.429714
G01 X0.570286 Y-51.793592 Z49.429714
G01 X0.570286 Y-52.917203 Z49.429714
G01 X1.140545 Y-53.487461 Z50.000000
G01 X0.570286 Y-52.917203 Z49.429714
G01 X0.570286 Y-52.917203 Z49.429714
G01 X0.000000 Y-53.487461 Z50.000000
G01 X0.570286 Y-52.917203 Z49.429714
G01 X0.570286 Y-52.800279 Z49.429714
G00 Z70.000000

G00 Z70.000000
G00 X54.554459 Y-45.526170

G01 Z49.531342 F100.0(Penetrate)
G01 X52.663175 Y-45.526170 Z49.531370 F400.000000
G01 X52.561547 Y-46.167492 Z49.429714
G01 X52.561547 Y-47.578603 Z49.429714
G01 X52.663175 Y-49.631036 Z49.531370
G01 X53.143348 Y-49.631036 Z49.531370
G01 X54.566002 Y-49.631036 Z49.531370
G01 X55.173118 Y-49.631036 Z49.531370
G01 X55.779981 Y-49.479370 Z49.482461
G01 X56.187453 Y-49.162180 Z49.432338
G01 X56.581887 Y-48.802177 Z49.422206
G01 X56.832980 Y-48.191674 Z49.398669
G01 X56.832980 Y-47.575781 Z49.398669
G01 X56.832980 Y-46.963161 Z49.398669
G01 X56.579714 Y-46.355903 Z49.424351
G01 X56.186268 Y-45.996268 Z49.434032
G01 X55.779727 Y-45.678288 Z49.482997
G01 X55.173118 Y-45.526170 Z49.531370
G01 X54.566002 Y-45.526170 Z49.531342
G01 X54.554459 Y-45.526170 Z49.531342
G00 Z70.000000


(Footer)
M5
G00 X0.0000 Y0.0000
M2
(Using default footer. To add your own footer create file "footer" in the output dir.)
(end)
%